X: 1
T: Ann MacNamara's Strathspey
C: D.R.MacDonald 1962
R: strathspey
S: Fiddle Hell Online 2021-5-14
Z: 2021 John Chambers <jc:trillian.mit.edu>
M: C
L: 1/8
K: A
E |\
(C<E)(A>E) F>EA>E | (C<E)(A>c) e>(fe>c) | f<(ae>c) B>AB<c | F<DE>C B,/B,/B, B,>D |
C<EA>E (F>E)(A>E) | (C<E)(A>c) e>(fe>c) | f<(ae>c) B>AB<c | F<DE>C A,/A,/A, A, ||
B |\
A>ce>c e<fe>c | e>fa>c f/e/f/g/ a>e | f>de>c e>fa>e | f<ae>c B/B/B (B>c) |
A>ce>c e>fe>c | e>fa>c f/e/f/g/ a>e | f>de>c e>fa>e | f<ae>c A/A/A A |]

